X: 20
T:Old Faithful
R:reel
C:Jerry Holland
Z:Paul Cranford - 
M:2/4
L:1/8
K:D
ag|f2 ed|c2 Bc|d2 A>G|F2 ED|G>F GB|AF dA|F2 E2|E2 ag|
f2 ed|c2 Bc|d>A BG|F2 ED|G>B dB|AF GE|F2 D2|D2 :|
fg|a>b ag|f2 ef|g>a ge|c2 BA|dc de|f>a gf|e2 E2|E2 fg|
a>b ag|f2 ef|g>e dc|d2 (3AB=c|BA GB|AF dA|F2 D2|D2 fg||
a>b ag|f2 ef|g>e dc|d2 (3AB=c|BA GB|AF dA|F2 E2|EG FE|
D>F Ad|E>G Be|F>A df|g2 bg|a>f ed|cb ag|f2 d2|d4|]
